public/static/img/crypto/DOGE.svg

<svg width="48" height="48" viewBox="0 0 48 48" fill="none" xmlns="http://www.w3.org/2000/svg">
<g clip-path="url(#clip0_1150_15603)">
<path d="M47.9848 24.1169C47.9848 37.3057 37.2935 47.9975 24.1042 47.9975C10.9155 47.9975 0.223633 37.3057 0.223633 24.1169C0.223633 10.9277 10.9155 0.236328 24.1042 0.236328C37.2935 0.236328 47.9848 10.9277 47.9848 24.1169Z" fill="#C3A723"/>
<path d="M26.5677 32.2549H21.2896V25.4494H26.5233V22.7032H21.2896V16.0171H26.2493C26.2493 16.0171 32.3539 16.0171 32.3539 23.5722C32.3539 32.4801 26.5674 32.2547 26.5674 32.2547M25.7471 11.2402H16.4337V22.7029H13.3292V25.4492H16.4337V37.0313H26.3441C26.3441 37.0313 37.2098 37.3895 37.2098 23.2402C37.2098 11.2402 25.7471 11.2402 25.7471 11.2402Z" fill="white"/>
</g>
<defs>
<clipPath id="clip0_1150_15603">
<rect width="48" height="48" fill="white"/>
</clipPath>
</defs>
</svg>

<svg width="48" height="48" fill="none" xmlns="http://www.w3.org/2000/svg"><g clip-path="url(#a)"><path d="M47.985 24.117c0 13.189-10.691 23.88-23.88 23.88-13.19 0-23.881-10.691-23.881-23.88 0-13.19 10.691-23.88 23.88-23.88 13.19 0 23.88 10.69 23.88 23.88Z" fill="#C3A723"/><path d="M26.568 32.255H21.29v-6.806h5.233v-2.746H21.29v-6.686h4.96s6.104 0 6.104 7.555c0 8.908-5.787 8.683-5.787 8.683m-.82-21.015h-9.313v11.463h-3.105v2.746h3.105v11.582h9.91s10.866.358 10.866-13.79c0-12-11.463-12-11.463-12Z" fill="#fff"/></g><defs><clipPath id="a"><path fill="#fff" d="M0 0h48v48H0z"/></clipPath></defs></svg>
